remix/System/shield-keyhole-line.svg

<svg viewBox="0 0 24 24" fill="currentColor" xmlns="http://www.w3.org/2000/svg"><path d="M12 1L20.2169 2.82598C20.6745 2.92766 21 3.33347 21 3.80217V13.7889C21 15.795 19.9974 17.6684 18.3282 18.7812L12 23L5.6718 18.7812C4.00261 17.6684 3 15.795 3 13.7889V3.80217C3 3.33347 3.32553 2.92766 3.78307 2.82598L12 1ZM12 3.04879L5 4.60434V13.7889C5 15.1263 5.6684 16.3752 6.7812 17.1171L12 20.5963L17.2188 17.1171C18.3316 16.3752 19 15.1263 19 13.7889V4.60434L12 3.04879ZM12 7C13.1046 7 14 7.89543 14 9C14 9.73984 13.5983 10.3858 13.0011 10.7318L13 15H11L10.9999 10.7324C10.4022 10.3866 10 9.74025 10 9C10 7.89543 10.8954 7 12 7Z"/></svg>

<svg viewBox="0 0 24 24" xmlns="http://www.w3.org/2000/svg"><path fill="none" d="M0 0h24v24H0Z"/><path d="M12 1l8.21 1.826v0c.45.1.78.5.78.976v9.987 -.001c-.01 2-1.01 3.87-2.68 4.99l-6.33 4.21 -6.33-4.22h0c-1.67-1.12-2.68-2.99-2.68-4.991V3.78v0c0-.47.32-.88.78-.976L11.96.98Zm0 2.049l-7 1.55v9.185h0c0 1.33.66 2.58 1.78 3.32l5.21 3.48 5.21-3.48v0c1.11-.75 1.78-2 1.78-3.33V4.58l-7-1.56ZM12 7v0c1.1-.01 2 .89 2 1.99 0 .71-.39 1.37-1 1.73l-.01 4.26h-2v-4.27 0c-.96-.56-1.29-1.78-.74-2.74 .35-.62 1.01-1 1.73-1Z"/></svg>
